web/ui/src/components/workflow/workflow-viewer/svgs/task-tool/ignore.svg

<svg fill="none" height="24" viewBox="0 0 24 24" width="24" xmlns="http://www.w3.org/2000/svg" xmlns:xlink="http://www.w3.org/1999/xlink"><clipPath id="a"><path d="m0 0h24v24h-24z"/></clipPath><g clip-path="url(#a)" fill="#526579"><path d="m2 12c0 .8284.67157 1.5 1.5 1.5s1.5-.6716 1.5-1.5-.67157-1.5-1.5-1.5-1.5.6716-1.5 1.5z"/><path d="m6.5 12c0 .8284.67157 1.5 1.5 1.5s1.5-.6716 1.5-1.5-.67157-1.5-1.5-1.5-1.5.6716-1.5 1.5z"/><path d="m14 12c0 .8284.6716 1.5 1.5 1.5s1.5-.6716 1.5-1.5-.6716-1.5-1.5-1.5-1.5.6716-1.5 1.5z"/><path clip-rule="evenodd" d="m16.2929 6.29289c.3905-.39052 1.0237-.39052 1.4142 0l5 5.00001c.3905.3905.3905 1.0237 0 1.4142l-5 5c-.3905.3905-1.0237.3905-1.4142 0s-.3905-1.0237 0-1.4142l4.2929-4.2929-4.2929-4.29289c-.3905-.39053-.3905-1.02369 0-1.41422z" fill-rule="evenodd"/></g></svg>

<svg width="24" height="24" viewBox="0 0 24 24" fill="none" xmlns="http://www.w3.org/2000/svg">
<g clip-path="url(#clip0_288_3661)">
<path d="M2 12C2 12.8284 2.67157 13.5 3.5 13.5C4.32843 13.5 5 12.8284 5 12C5 11.1716 4.32843 10.5 3.5 10.5C2.67157 10.5 2 11.1716 2 12Z" fill="#526579"/>
<path d="M6.5 12C6.5 12.8284 7.17157 13.5 8 13.5C8.82843 13.5 9.5 12.8284 9.5 12C9.5 11.1716 8.82843 10.5 8 10.5C7.17157 10.5 6.5 11.1716 6.5 12Z" fill="#526579"/>
<path d="M14 12C14 12.8284 14.6716 13.5 15.5 13.5C16.3284 13.5 17 12.8284 17 12C17 11.1716 16.3284 10.5 15.5 10.5C14.6716 10.5 14 11.1716 14 12Z" fill="#526579"/>
<path fill-rule="evenodd" clip-rule="evenodd" d="M16.2929 6.29289C16.6834 5.90237 17.3166 5.90237 17.7071 6.29289L22.7071 11.2929C23.0976 11.6834 23.0976 12.3166 22.7071 12.7071L17.7071 17.7071C17.3166 18.0976 16.6834 18.0976 16.2929 17.7071C15.9024 17.3166 15.9024 16.6834 16.2929 16.2929L20.5858 12L16.2929 7.70711C15.9024 7.31658 15.9024 6.68342 16.2929 6.29289Z" fill="#526579"/>
</g>
<defs>
<clipPath id="clip0_288_3661">
<rect width="24" height="24" fill="white"/>
</clipPath>
</defs>
</svg>
